src/assets/outline/Translate.svg

<svg width="24" height="24" viewBox="0 0 24 24"  xmlns="http://www.w3.org/2000/svg">
<path d="M14.79 19.42C14.68 19.42 14.56 19.39 14.46 19.34C14.09 19.15 13.94 18.7 14.12 18.33L16.26 14.06C16.39 13.81 16.65 13.65 16.93 13.65C17.21 13.65 17.47 13.81 17.6 14.07L19.74 18.34C19.93 18.71 19.78 19.16 19.4 19.35C19.03 19.54 18.58 19.39 18.39 19.01L16.93 16.08L15.47 19.01C15.33 19.27 15.06 19.42 14.79 19.42Z" />
<path d="M18.6801 18.6599H15.1602C14.7502 18.6599 14.4102 18.3199 14.4102 17.9099C14.4102 17.4999 14.7502 17.1599 15.1602 17.1599H18.6801C19.0901 17.1599 19.4301 17.4999 19.4301 17.9099C19.4301 18.3199 19.1001 18.6599 18.6801 18.6599Z" />
<path d="M16.9198 22.7501C13.7098 22.7501 11.0898 20.14 11.0898 16.92C11.0898 13.7 13.6998 11.0901 16.9198 11.0901C20.1298 11.0901 22.7498 13.7 22.7498 16.92C22.7498 20.14 20.1398 22.7501 16.9198 22.7501ZM16.9198 12.6C14.5298 12.6 12.5898 14.5401 12.5898 16.9301C12.5898 19.3201 14.5298 21.2601 16.9198 21.2601C19.2998 21.2601 21.2498 19.3201 21.2498 16.9301C21.2498 14.5401 19.3098 12.6 16.9198 12.6Z" />
<path d="M4.86 12.7C3.75 12.7 2.87 12.39 2.25 11.79C1.59 11.15 1.25 10.18 1.25 8.92999V5.01001C1.25 2.58001 2.59 1.23999 5.02 1.23999H8.94C10.19 1.23999 11.15 1.56999 11.8 2.23999C12.43 2.88999 12.74 3.83003 12.71 5.03003V8.92999C12.74 10.15 12.43 11.11 11.78 11.76C11.13 12.41 10.17 12.71 8.92999 12.69H5.03C4.96 12.7 4.91 12.7 4.86 12.7ZM5.02 2.75C3.41 2.75 2.75 3.41002 2.75 5.02002V8.94C2.75 9.77 2.92999 10.37 3.28999 10.72C3.63999 11.06 4.20001 11.21 4.99001 11.2H8.92999C9.76999 11.22 10.35 11.05 10.7 10.7C11.05 10.35 11.21 9.76001 11.19 8.95001V5.01001C11.21 4.21001 11.05 3.63998 10.71 3.28998C10.36 2.92998 9.75999 2.75 8.92999 2.75H5.02Z" />
<path d="M8.99994 6.59985H4.93994C4.52994 6.59985 4.18994 6.25985 4.18994 5.84985C4.18994 5.43985 4.52994 5.09985 4.93994 5.09985H8.99994C9.40994 5.09985 9.74994 5.43985 9.74994 5.84985C9.74994 6.25985 9.41994 6.59985 8.99994 6.59985Z" />
<path d="M6.97998 6.59991C6.56998 6.59991 6.22998 6.25991 6.22998 5.84991V5.16992C6.22998 4.75992 6.56998 4.41992 6.97998 4.41992C7.38998 4.41992 7.72998 4.75992 7.72998 5.16992V5.84991C7.72998 6.25991 7.38998 6.59991 6.97998 6.59991Z" />
<path d="M4.93994 9.75995C4.52994 9.75995 4.18994 9.41995 4.18994 9.00995C4.18994 8.59995 4.52994 8.25995 4.93994 8.25995C6.20994 8.25995 7.23994 7.17997 7.23994 5.83997C7.23994 5.42997 7.57994 5.08997 7.98994 5.08997C8.39994 5.08997 8.73994 5.42997 8.73994 5.83997C8.73994 7.99997 7.03994 9.75995 4.93994 9.75995Z" />
<path d="M9.00993 9.75994C8.07993 9.75994 7.18994 9.28996 6.55994 8.45996C6.30994 8.12996 6.37995 7.65991 6.70995 7.40991C7.03995 7.15991 7.50993 7.22993 7.75993 7.55993C8.09993 8.01993 8.54993 8.26995 9.00993 8.26995C9.41993 8.26995 9.75993 8.60995 9.75993 9.01995C9.75993 9.42995 9.41993 9.75994 9.00993 9.75994Z" />
<path d="M9 22.75C4.73 22.75 1.25 19.27 1.25 15C1.25 14.59 1.59 14.25 2 14.25C2.41 14.25 2.75 14.59 2.75 15C2.75 17.96 4.81 20.44 7.58 21.09L7.31 20.64C7.1 20.28 7.21001 19.82 7.57001 19.61C7.92001 19.4 8.39001 19.51 8.60001 19.87L9.64999 21.62C9.78999 21.85 9.79 22.14 9.66 22.37C9.52 22.6 9.27 22.75 9 22.75Z" />
<path d="M21.9999 9.75C21.5899 9.75 21.2499 9.41 21.2499 9C21.2499 6.04 19.1899 3.55997 16.4199 2.90997L16.6899 3.35999C16.8999 3.71999 16.7899 4.18001 16.4299 4.39001C16.0799 4.60001 15.6099 4.49001 15.3999 4.13L14.3499 2.38C14.2099 2.15 14.2099 1.86 14.3399 1.63C14.4699 1.39 14.7199 1.25 14.9899 1.25C19.2599 1.25 22.7399 4.73 22.7399 9C22.7499 9.41 22.4099 9.75 21.9999 9.75Z" />
</svg>

<?xml version="1.0" encoding="UTF-8"?>
<svg width="24" height="24" viewBox="0 0 24 24" xmlns="http://www.w3.org/2000/svg">
 <path d="m14.79 19.42c-0.11 0-0.23-0.03-0.33-0.08-0.37-0.19-0.52-0.64-0.34-1.01l2.14-4.27c0.13-0.25 0.39-0.41 0.67-0.41s0.54 0.16 0.67 0.42l2.14 4.27c0.19 0.37 0.04 0.82-0.34 1.01-0.37 0.19-0.82 0.04-1.01-0.34l-1.46-2.93-1.46 2.93c-0.14 0.26-0.41 0.41-0.68 0.41z"/>
 <path d="m18.68 18.66h-3.5199c-0.41 0-0.75-0.34-0.75-0.75s0.34-0.75 0.75-0.75h3.5199c0.41 0 0.75 0.34 0.75 0.75s-0.33 0.75-0.75 0.75z"/>
 <path d="m16.92 22.75c-3.21 0-5.83-2.6101-5.83-5.8301s2.61-5.8299 5.83-5.8299c3.21 0 5.83 2.6099 5.83 5.8299s-2.61 5.8301-5.83 5.8301zm0-10.15c-2.39 0-4.33 1.9401-4.33 4.3301s1.94 4.33 4.33 4.33c2.38 0 4.33-1.94 4.33-4.33s-1.94-4.3301-4.33-4.3301z"/>
 <path d="m4.86 12.7c-1.11 0-1.99-0.31-2.61-0.91-0.66-0.64-1-1.61-1-2.86v-3.92c0-2.43 1.34-3.77 3.77-3.77h3.92c1.25 0 2.21 0.33 2.86 1 0.63 0.65 0.94 1.59 0.91 2.79v3.9c0.03 1.22-0.28 2.18-0.93 2.83s-1.61 0.95-2.85 0.93h-3.9c-0.07 0.01-0.12 0.01-0.17 0.01zm0.16-9.95c-1.61 0-2.27 0.66002-2.27 2.27v3.92c0 0.83 0.17999 1.43 0.53999 1.78 0.35 0.34 0.91002 0.49 1.7 0.48h3.94c0.84 0.02 1.42-0.15 1.77-0.5s0.51-0.93999 0.49-1.75v-3.94c0.02-0.8-0.14-1.37-0.48-1.72-0.35-0.36-0.95001-0.53998-1.78-0.53998h-3.91z"/>
 <path d="m8.9999 6.5998h-4.06c-0.41 0-0.75-0.34-0.75-0.75s0.34-0.75 0.75-0.75h4.06c0.41 0 0.75 0.34 0.75 0.75s-0.33 0.75-0.75 0.75z"/>
 <path d="m6.98 6.5999c-0.41 0-0.75-0.34-0.75-0.75v-0.67999c0-0.41 0.34-0.75 0.75-0.75s0.75 0.34 0.75 0.75v0.67999c0 0.41-0.34 0.75-0.75 0.75z"/>
 <path d="m4.9399 9.76c-0.41 0-0.75-0.34-0.75-0.75s0.34-0.75 0.75-0.75c1.27 0 2.3-1.08 2.3-2.42 0-0.41 0.34-0.75 0.75-0.75s0.75 0.34 0.75 0.75c0 2.16-1.7 3.92-3.8 3.92z"/>
 <path d="m9.0099 9.7599c-0.93 0-1.82-0.46998-2.45-1.3-0.25-0.33-0.17999-0.80005 0.15001-1.05s0.79998-0.17998 1.05 0.15002c0.34 0.46 0.79 0.71002 1.25 0.71002 0.41 0 0.75 0.34 0.75 0.75s-0.34 0.73999-0.75 0.73999z"/>
 <path d="m9 22.75c-4.27 0-7.75-3.48-7.75-7.75 0-0.41 0.34-0.75 0.75-0.75s0.75 0.34 0.75 0.75c0 2.96 2.06 5.44 4.83 6.09l-0.27-0.45c-0.21-0.36-0.09999-0.82 0.26001-1.03 0.35-0.21 0.82-0.1 1.03 0.26l1.05 1.75c0.14 0.23 0.14001 0.52 0.01001 0.75-0.14 0.23-0.39 0.38-0.66 0.38z"/>
 <path d="m22 9.75c-0.41 0-0.75-0.34-0.75-0.75 0-2.96-2.06-5.44-4.83-6.09l0.27 0.45002c0.21 0.36 0.1 0.82002-0.26 1.03-0.35 0.21-0.82 0.1-1.03-0.26001l-1.05-1.75c-0.14-0.23-0.14-0.52-0.01-0.75 0.13-0.24 0.38-0.38 0.65-0.38 4.27 0 7.75 3.48 7.75 7.75 0.01 0.41-0.33 0.75-0.74 0.75z"/>
</svg>
